X: 32323
T: Pigtown Fling, The
R: reel
M: 4/4
K: Gmajor
G2ge d2ed|Bdge dBAB|1 G2ge d2ed|B2Ac BGEF:|2 g2ge d2ed|B2Ac BGG2||
Beed e2fe|dfaf gfed|Beed e2fe|1 dfaf g4:|2 dgfa gedB||

